src/topics/icons/backbone-icon.svg

<svg height="318" preserveAspectRatio="xMidYMid" viewBox="0 0 256 318" width="256" xmlns="http://www.w3.org/2000/svg"><path d="m0 0v171.944611l127.983514 72.955928v-49.59175l-85.6191661-48.806489v-76.6608805l85.6191661 48.8064885v-45.6919797z" fill="#002a41"/><path d="m255.967029 0v171.944611l-127.983515 72.955928v-49.59175l85.619167-48.806489v-76.6608805l-85.619167 48.8064885v-45.6919797z" fill="#0071b5"/><path d="m0 317.932684v-171.944611l127.983514-72.9559289v49.5917509l-85.6191661 48.806488v72.761106l85.6191661-48.806485v49.591752z" fill="#0071b5"/><path d="m255.967029 317.932684v-171.944611l-127.983515-72.9559289v49.5917509l85.619167 48.806488v72.761106l-85.619167-48.806485v49.591752z" fill="#002a41"/></svg>

<?xml version="1.0" encoding="UTF-8" standalone="no"?>
<svg width="256px" height="318px" viewBox="0 0 256 318" version="1.1" xmlns="http://www.w3.org/2000/svg" xmlns:xlink="http://www.w3.org/1999/xlink" preserveAspectRatio="xMidYMid">
	<g>
		<path d="M0,0 L0,171.944611 L127.983514,244.900539 L127.983514,195.308789 L42.3643479,146.5023 L42.3643479,69.8414195 L127.983514,118.647908 L127.983514,72.9559283 L0,0 L0,0 Z" fill="#002A41"></path>
		<path d="M255.967029,0 L255.967029,171.944611 L127.983514,244.900539 L127.983514,195.308789 L213.602681,146.5023 L213.602681,69.8414195 L127.983514,118.647908 L127.983514,72.9559283 L255.967029,0 L255.967029,0 Z" fill="#0071B5"></path>
		<path d="M0,317.932684 L0,145.988073 L127.983514,73.0321441 L127.983514,122.623895 L42.3643479,171.430383 L42.3643479,244.191489 L127.983514,195.385004 L127.983514,244.976756 L0,317.932684 L0,317.932684 Z" fill="#0071B5"></path>
		<path d="M255.967029,317.932684 L255.967029,145.988073 L127.983514,73.0321441 L127.983514,122.623895 L213.602681,171.430383 L213.602681,244.191489 L127.983514,195.385004 L127.983514,244.976756 L255.967029,317.932684 L255.967029,317.932684 Z" fill="#002A41"></path>
	</g>
</svg>
